static/assets/head_icons_png/man/bizi/1035931.svg

<svg xmlns="http://www.w3.org/2000/svg" width="8" height="10"><g transform="translate(4.45 4.5)"><radialGradient id="a" gradientUnits="userSpaceOnUse" gradientTransform="matrix(.0205 .00046 -.00072 .0132 -.1 -14.5)" spreadMethod="pad" cx="0" cy="0" r="819.2" fx="0" fy="0"><stop offset="0" stop-color="#fbbd9d"/><stop offset="1" stop-color="#fedec1"/></radialGradient><path d="M3.4-4.15Q2.1-3.1 2.05-1.6l-.2.75q-.2.6.1 1.75.2 1.1.7 1.6l.2 1.1-.15.25L1.55 5q-.75.4-1.65.45l-1.35-.35-1.45-1.25-.05-.55q-.05-.5.3-.85.35-.4.75-1.5.35-1.15.05-2.85-.3-1.7-1.55-2.2-2-.55-.1-.35l3.15.15 1.75-.05.95-.1q.6-.05 1.05.3" fill="url(#a)"/></g></svg>

<?xml version="1.0" encoding="utf-8"?>
<svg version="1.1" id="Layer_1"
xmlns="http://www.w3.org/2000/svg"
xmlns:xlink="http://www.w3.org/1999/xlink"
xmlns:author="http://www.sothink.com"
width="8px" height="10px"
xml:space="preserve">
<g id="496" transform="matrix(1, 0, 0, 1, 4.45, 4.5)">
<radialGradient
id="RadialGradID_4251" gradientUnits="userSpaceOnUse" gradientTransform="matrix(0.0205078, 0.000457764, -0.000717163, 0.0131989, -0.1, -14.5)" spreadMethod ="pad" cx="0" cy="0" r="819.2" fx="0" fy="0" >
<stop  offset="0"  style="stop-color:#FBBD9D;stop-opacity:1" />
<stop  offset="1"  style="stop-color:#FEDEC1;stop-opacity:1" />
</radialGradient>
<path style="fill:url(#RadialGradID_4251) " d="M3.4,-4.15Q2.1 -3.1 2.05 -1.6L1.85 -0.85Q1.65 -0.25 1.95 0.9Q2.15 2 2.65 2.5L2.85 3.6L2.7 3.85L1.55 5Q0.8 5.4 -0.1 5.45L-1.45 5.1L-2.9 3.85L-2.95 3.3Q-3 2.8 -2.65 2.45Q-2.3 2.05 -1.9 0.95Q-1.55 -0.2 -1.85 -1.9Q-2.15 -3.6 -3.4 -4.1Q-5.4 -4.65 -3.5 -4.45L-0.35 -4.3L1.4 -4.35L2.35 -4.45Q2.95 -4.5 3.4 -4.15" />
</g>
</svg>
